Newaita-dark/apps/16/preferences-desktop-color.svg

<svg height="16pt" viewBox="0 0 16 16" width="16pt" xmlns="http://www.w3.org/2000/svg" xmlns:xlink="http://www.w3.org/1999/xlink"><linearGradient id="a" gradientUnits="userSpaceOnUse" x1="7.9375" x2="7.9375" y1="13.734875" y2="14.39634375"><stop offset="0" stop-opacity=".275"/><stop offset="1" stop-opacity="0"/></linearGradient><linearGradient id="b"><stop offset="0" stop-opacity=".314"/><stop offset=".222" stop-opacity=".275"/><stop offset="1" stop-opacity="0"/></linearGradient><radialGradient id="c" cx="450.909" cy="189.579" gradientTransform="matrix(0 -.03907 -.07032 0 25.735 31.516)" gradientUnits="userSpaceOnUse" r="21.167" xlink:href="#b"/><radialGradient id="d" cx="450.909" cy="189.579" gradientTransform="matrix(0 .03907 .07032 0 -9.858 -4.045)" gradientUnits="userSpaceOnUse" r="21.167" xlink:href="#b"/><radialGradient id="e" cx="450.909" cy="189.579" gradientTransform="matrix(0 -.03907 .07032 0 -9.858 31.516)" gradientUnits="userSpaceOnUse" r="21.167" xlink:href="#b"/><radialGradient id="f" cx="450.909" cy="189.579" gradientTransform="matrix(0 .03907 -.07032 0 25.735 -4.045)" gradientUnits="userSpaceOnUse" r="21.167" xlink:href="#b"/><linearGradient id="g" gradientUnits="userSpaceOnUse" x1="3.96875" x2="3.96875" y1="5.74865625" y2="1.77990625"><stop offset="0" stop-color="#9ccc65"/><stop offset="1" stop-color="#aed581"/></linearGradient><linearGradient id="h" gradientUnits="userSpaceOnUse" x1="11.90625" x2="11.90625" y1="5.74865625" y2="1.77990625"><stop offset="0" stop-color="#ffee58"/><stop offset="1" stop-color="#fff176"/></linearGradient><linearGradient id="i" gradientUnits="userSpaceOnUse" x1="3.96875" x2="3.96875" y1="13.68615625" y2="9.71740625"><stop offset="0" stop-color="#7e57c2"/><stop offset="1" stop-color="#9575cd"/></linearGradient><linearGradient id="j" gradientUnits="userSpaceOnUse" x1="3.96875" x2="3.96875" y1="9.71740625" y2="5.74865625"><stop offset="0" stop-color="#ff7043"/><stop offset="1" stop-color="#ff8a65"/></linearGradient><linearGradient id="k" gradientUnits="userSpaceOnUse" x1="11.90625" x2="11.90625" y1="13.68615625" y2="9.71740625"><stop offset="0" stop-color="#29b6f6"/><stop offset="1" stop-color="#4fc3f7"/></linearGradient><linearGradient id="l" gradientUnits="userSpaceOnUse" x1="11.90625" x2="11.90625" y1="9.71740625" y2="5.74865625"><stop offset="0" stop-color="#ec407a"/><stop offset="1" stop-color="#f06292"/></linearGradient><linearGradient id="m" gradientUnits="userSpaceOnUse" x1="7.9375" x2="7.9375" y1="9.71740625" y2="5.74865625"><stop offset="0" stop-color="#ef5350"/><stop offset="1" stop-color="#e57373"/></linearGradient><linearGradient id="n" gradientUnits="userSpaceOnUse" x1="7.9375" x2="7.9375" y1="13.68615625" y2="9.71740625"><stop offset="0" stop-color="#5c6bc0"/><stop offset="1" stop-color="#7986cb"/></linearGradient><linearGradient id="o" gradientUnits="userSpaceOnUse" x1="7.9375" x2="7.9375" y1="5.74865625" y2="1.77990625"><stop offset="0" stop-color="#d4e157"/><stop offset="1" stop-color="#dce775"/></linearGradient><path d="m3.309 13.71h9.261v.712h-9.26zm0 0" fill="url(#a)"/><path d="m12.57 13.734h1.32v-.66h-1.32zm0 0" fill="url(#c)"/><path d="m3.309 13.734h-1.325v.664h1.326zm0 0" fill="url(#d)"/><path d="m3.309 13.734h-1.325v-.66h1.326zm0 0" fill="url(#e)"/><path d="m12.57 13.734h1.32v.664h-1.32zm0 0" fill="url(#f)"/><path d="m2.645 1.777a.663.663 0 0 0 -.66.664v3.305h3.968v-3.969zm0 0" fill="url(#g)"/><path d="m9.922 1.777v3.97h3.969v-3.307a.66.66 0 0 0 -.66-.664zm0 0" fill="url(#h)"/><path d="m1.984 9.719v3.304c0 .368.297.665.66.665h3.31v-3.97zm0 0" fill="url(#i)"/><path d="m1.984 5.746h3.97v3.974h-3.97zm0 0" fill="url(#j)"/><path d="m9.922 9.719v3.969h3.308a.66.66 0 0 0 .66-.665v-3.303zm0 0" fill="url(#k)"/><path d="m9.922 5.746h3.969v3.974h-3.971zm0 0" fill="url(#l)"/><path d="m5.953 5.746h3.969v3.974h-3.969zm0 0" fill="url(#m)"/><path d="m5.953 9.719h3.969v3.969h-3.969zm0 0" fill="url(#n)"/><path d="m5.953 1.777h3.969v3.97h-3.969zm0 0" fill="url(#o)"/><path d="m2.645 1.777a.663.663 0 0 0 -.66.664v.09c0-.367.296-.664.66-.664h10.585a.66.66 0 0 1 .66.664v-.09a.66.66 0 0 0 -.66-.664zm0 0" fill="#fff" fill-opacity=".784"/><path d="m2.645 13.695a.663.663 0 0 1 -.66-.664v-.09c0 .368.296.66.66.66h10.585c.368 0 .66-.292.66-.66v.09a.66.66 0 0 1 -.66.664zm0 0" fill-opacity=".235"/><g fill="#fff"><path d="m1.984 5.746v.168h3.97v-.168zm0 0" fill-opacity=".392"/><path d="m2.645 1.777a.663.663 0 0 0 -.66.664v.164a.66.66 0 0 1 .66-.66h3.308v-.168zm7.277 0v.168h3.308c.368 0 .66.293.66.66v-.164a.66.66 0 0 0 -.66-.664zm0 0" fill-opacity=".588"/><path d="m1.984 9.719v.164h3.97v-.164zm7.938 0v.164h3.969v-.164zm0-3.973v.168h3.969v-.168zm-3.969 0v.168h3.969v-.168zm0 0" fill-opacity=".392"/><path d="m5.953 9.719v.164h3.969v-.164zm0 0" fill-opacity=".392"/><path d="m5.953 1.777v.168h3.969v-.168zm0 0" fill-opacity=".588"/></g><path d="m1.984 9.55v.169h3.97v-.169zm0-3.968v.164h3.97v-.164zm7.938 0v.164h3.969v-.164zm-7.938 7.278v.163c0 .368.297.665.66.665h3.31v-.168h-3.31a.66.66 0 0 1 -.66-.66zm11.906 0c0 .367-.292.66-.66.66h-3.308v.168h3.308a.66.66 0 0 0 .66-.665zm-3.968-3.31v.169h3.969v-.169zm0 0" fill-opacity=".235"/><path d="m5.953 9.55v.169h3.969v-.169zm0 3.97v.168h3.969v-.168zm0-7.938v.164h3.969v-.164zm0 0" fill-opacity=".235"/><path d="m2.645 1.73a.708.708 0 0 0 -.708.711v10.582c0 .395.317.711.708.711h10.585c.391 0 .707-.316.707-.71v-10.584a.708.708 0 0 0 -.707-.71zm3.355.094h3.875v3.876h-3.875zm-3.355 0h3.261v3.876h-3.875v-3.259c0-.343.274-.617.614-.617zm7.324 0h3.261c.34 0 .614.274.614.617v3.259h-3.875zm-3.969 3.969h3.875v3.879h-3.875zm-3.969 0h3.875v3.879h-3.875zm7.938 0h3.875v3.879h-3.875zm-3.969 3.973h3.875v3.875h-3.875zm3.969 0h3.875v3.257a.613.613 0 0 1 -.614.618h-3.26zm-7.938 0h3.875v3.875h-3.261a.613.613 0 0 1 -.614-.618zm0 0" fill="#212121"/></svg>

<svg xmlns="http://www.w3.org/2000/svg" width="16pt" height="16pt" viewBox="0 0 16 16"><defs><linearGradient id="a" gradientUnits="userSpaceOnUse" x1="254" y1="233.5" x2="254" y2="254.667" gradientTransform="matrix(.03125 0 0 .03125 0 6.438)"><stop offset="0" stop-opacity=".275"/><stop offset="1" stop-opacity="0"/></linearGradient><radialGradient id="b" gradientUnits="userSpaceOnUse" cx="450.909" cy="189.579" fx="450.909" fy="189.579" r="21.167" gradientTransform="matrix(0 -.03907 -.07032 0 25.735 31.516)"><stop offset="0" stop-opacity=".314"/><stop offset=".222" stop-opacity=".275"/><stop offset="1" stop-opacity="0"/></radialGradient><radialGradient id="c" gradientUnits="userSpaceOnUse" cx="450.909" cy="189.579" fx="450.909" fy="189.579" r="21.167" gradientTransform="matrix(0 .03907 .07032 0 -9.858 -4.045)"><stop offset="0" stop-opacity=".314"/><stop offset=".222" stop-opacity=".275"/><stop offset="1" stop-opacity="0"/></radialGradient><radialGradient id="d" gradientUnits="userSpaceOnUse" cx="450.909" cy="189.579" fx="450.909" fy="189.579" r="21.167" gradientTransform="matrix(0 -.03907 .07032 0 -9.858 31.516)"><stop offset="0" stop-opacity=".314"/><stop offset=".222" stop-opacity=".275"/><stop offset="1" stop-opacity="0"/></radialGradient><radialGradient id="e" gradientUnits="userSpaceOnUse" cx="450.909" cy="189.579" fx="450.909" fy="189.579" r="21.167" gradientTransform="matrix(0 .03907 -.07032 0 25.735 -4.045)"><stop offset="0" stop-opacity=".314"/><stop offset=".222" stop-opacity=".275"/><stop offset="1" stop-opacity="0"/></radialGradient><linearGradient id="f" gradientUnits="userSpaceOnUse" x1="127" y1="-31.083" x2="127" y2="-158.083" gradientTransform="matrix(.03125 0 0 .03125 0 6.72)"><stop offset="0" stop-color="#9ccc65"/><stop offset="1" stop-color="#aed581"/></linearGradient><linearGradient id="g" gradientUnits="userSpaceOnUse" x1="381" y1="-31.083" x2="381" y2="-158.083" gradientTransform="matrix(.03125 0 0 .03125 0 6.72)"><stop offset="0" stop-color="#ffee58"/><stop offset="1" stop-color="#fff176"/></linearGradient><linearGradient id="h" gradientUnits="userSpaceOnUse" x1="127" y1="222.917" x2="127" y2="95.917" gradientTransform="matrix(.03125 0 0 .03125 0 6.72)"><stop offset="0" stop-color="#7e57c2"/><stop offset="1" stop-color="#9575cd"/></linearGradient><linearGradient id="i" gradientUnits="userSpaceOnUse" x1="127" y1="95.917" x2="127" y2="-31.083" gradientTransform="matrix(.03125 0 0 .03125 0 6.72)"><stop offset="0" stop-color="#ff7043"/><stop offset="1" stop-color="#ff8a65"/></linearGradient><linearGradient id="j" gradientUnits="userSpaceOnUse" x1="381" y1="222.917" x2="381" y2="95.917" gradientTransform="matrix(.03125 0 0 .03125 0 6.72)"><stop offset="0" stop-color="#29b6f6"/><stop offset="1" stop-color="#4fc3f7"/></linearGradient><linearGradient id="k" gradientUnits="userSpaceOnUse" x1="381" y1="95.917" x2="381" y2="-31.083" gradientTransform="matrix(.03125 0 0 .03125 0 6.72)"><stop offset="0" stop-color="#ec407a"/><stop offset="1" stop-color="#f06292"/></linearGradient><linearGradient id="l" gradientUnits="userSpaceOnUse" x1="254" y1="95.917" x2="254" y2="-31.083" gradientTransform="matrix(.03125 0 0 .03125 0 6.72)"><stop offset="0" stop-color="#ef5350"/><stop offset="1" stop-color="#e57373"/></linearGradient><linearGradient id="m" gradientUnits="userSpaceOnUse" x1="254" y1="222.917" x2="254" y2="95.917" gradientTransform="matrix(.03125 0 0 .03125 0 6.72)"><stop offset="0" stop-color="#5c6bc0"/><stop offset="1" stop-color="#7986cb"/></linearGradient><linearGradient id="n" gradientUnits="userSpaceOnUse" x1="254" y1="-31.083" x2="254" y2="-158.083" gradientTransform="matrix(.03125 0 0 .03125 0 6.72)"><stop offset="0" stop-color="#d4e157"/><stop offset="1" stop-color="#dce775"/></linearGradient></defs><path d="M3.309 13.71h9.261v.712H3.31zm0 0" fill="url(#a)"/><path d="M12.57 13.734h1.32v-.66h-1.32zm0 0" fill="url(#b)"/><path d="M3.309 13.734H1.984v.664H3.31zm0 0" fill="url(#c)"/><path d="M3.309 13.734H1.984v-.66H3.31zm0 0" fill="url(#d)"/><path d="M12.57 13.734h1.32v.664h-1.32zm0 0" fill="url(#e)"/><path d="M2.645 1.777a.663.663 0 0 0-.66.664v3.305h3.968V1.777zm0 0" fill="url(#f)"/><path d="M9.922 1.777v3.97h3.969V2.44a.66.66 0 0 0-.66-.664zm0 0" fill="url(#g)"/><path d="M1.984 9.719v3.304c0 .368.297.665.66.665h3.31v-3.97zm0 0" fill="url(#h)"/><path d="M1.984 5.746h3.97V9.72h-3.97zm0 0" fill="url(#i)"/><path d="M9.922 9.719v3.969h3.308a.66.66 0 0 0 .66-.665V9.72zm0 0" fill="url(#j)"/><path d="M9.922 5.746h3.969V9.72H9.92zm0 0" fill="url(#k)"/><path d="M5.953 5.746h3.969V9.72H5.953zm0 0" fill="url(#l)"/><path d="M5.953 9.719h3.969v3.969H5.953zm0 0" fill="url(#m)"/><path d="M5.953 1.777h3.969v3.97H5.953zm0 0" fill="url(#n)"/><path d="M2.645 1.777a.663.663 0 0 0-.66.664v.09c0-.367.296-.664.66-.664H13.23a.66.66 0 0 1 .66.664v-.09a.66.66 0 0 0-.66-.664zm0 0" fill="#fff" fill-opacity=".784"/><path d="M2.645 13.695a.663.663 0 0 1-.66-.664v-.09c0 .368.296.66.66.66H13.23c.368 0 .66-.292.66-.66v.09a.66.66 0 0 1-.66.664zm0 0" fill-opacity=".235"/><path d="M1.984 5.746v.168h3.97v-.168zm0 0" fill="#fff" fill-opacity=".392"/><path d="M2.645 1.777a.663.663 0 0 0-.66.664v.164a.66.66 0 0 1 .66-.66h3.308v-.168zm0 0M9.922 1.777v.168h3.308c.368 0 .66.293.66.66v-.164a.66.66 0 0 0-.66-.664zm0 0" fill="#fff" fill-opacity=".588"/><path d="M1.984 9.719v.164h3.97v-.164zm0 0M9.922 9.719v.164h3.969v-.164zm0 0M9.922 5.746v.168h3.969v-.168zm0 0M5.953 5.746v.168h3.969v-.168zm0 0" fill="#fff" fill-opacity=".392"/><path d="M5.953 9.719v.164h3.969v-.164zm0 0" fill="#fff" fill-opacity=".392"/><path d="M5.953 1.777v.168h3.969v-.168zm0 0" fill="#fff" fill-opacity=".588"/><path d="M1.984 9.55v.169h3.97V9.55zm0 0M1.984 5.582v.164h3.97v-.164zm0 0M9.922 5.582v.164h3.969v-.164zm0 0M1.984 12.86v.163c0 .368.297.665.66.665h3.31v-.168h-3.31a.66.66 0 0 1-.66-.66zm0 0M13.89 12.86c0 .367-.292.66-.66.66H9.922v.168h3.308a.66.66 0 0 0 .66-.665zm0 0M9.922 9.55v.169h3.969V9.55zm0 0" fill-opacity=".235"/><path d="M5.953 9.55v.169h3.969V9.55zm0 0M5.953 13.52v.168h3.969v-.168zm0 0M5.953 5.582v.164h3.969v-.164zm0 0" fill-opacity=".235"/><path d="M2.645 1.73a.708.708 0 0 0-.708.711v10.582c0 .395.317.711.708.711H13.23c.391 0 .707-.316.707-.71V2.44a.708.708 0 0 0-.707-.71zM6 1.824h3.875V5.7H6zm-3.355 0h3.261V5.7H2.031V2.441c0-.343.274-.617.614-.617zm7.324 0h3.261c.34 0 .614.274.614.617V5.7H9.969zM6 5.793h3.875v3.879H6zm-3.969 0h3.875v3.879H2.031zm7.938 0h3.875v3.879H9.969zM6 9.766h3.875v3.875H6zm3.969 0h3.875v3.257a.613.613 0 0 1-.614.618H9.97zm-7.938 0h3.875v3.875H2.645a.613.613 0 0 1-.614-.618zm0 0" fill="#212121"/></svg>
